X:23
T:Barry Brackie Colka
R:polka
Z:id:hn-polka-42
M:2/4
L:1/8
K:D
A>B ce|fe/d/ BA|Bd B/A/B|dB B


*****************************


14800 2 0.518479 

<start
A>d | ed cB | A2 A2 :|
|: Ad cA | BA AB/c/ | d/B/A/B/ c/B/A/B/ | cB A>B |1 AG G2 :|2 AG G2 ||
<end


*****************************


14900 2 0.67755973 

<stark>
